src/lib/packages/icons/src/assets/filled/virus-covid-slash.svg

<svg width="24" height="24" viewBox="0 0 24 24" fill="none" xmlns="http://www.w3.org/2000/svg">
<path d="M21.75 10.5V13.5C21.75 13.91 21.41 14.25 21 14.25C20.59 14.25 20.25 13.91 20.25 13.5V12.75H18.453C18.31 13.984 17.823 15.108 17.093 16.033L18.36 17.3001L18.89 16.77C19.19 16.48 19.66 16.48 19.96 16.77C20.25 17.07 20.25 17.5401 19.96 17.8301L17.83 19.96C17.69 20.1 17.5001 20.1699 17.3001 20.1699C17.1101 20.1699 16.92 20.1 16.77 19.96C16.48 19.66 16.48 19.1899 16.77 18.8899L17.3001 18.3601L16.033 17.093C15.108 17.822 13.984 18.3099 12.75 18.4529V20.25H13.5C13.91 20.25 14.25 20.59 14.25 21C14.25 21.41 13.91 21.75 13.5 21.75H10.5C10.09 21.75 9.75003 21.41 9.75003 21C9.75003 20.59 10.09 20.25 10.5 20.25H11.25V18.4519C10.944 18.4169 10.6441 18.3651 10.3531 18.2901C10.1261 18.2311 10.0461 17.95 10.2111 17.784L17.783 10.2119C17.949 10.0459 18.231 10.126 18.289 10.354C18.364 10.645 18.4161 10.946 18.4511 11.251H20.2491V10.501C20.2491 10.091 20.5891 9.751 20.9991 9.751C21.409 9.751 21.75 10.09 21.75 10.5ZM21.5291 2.46804C21.2351 2.17604 20.76 2.17697 20.468 2.47097L18.364 4.57498L17.829 4.04006C17.539 3.75006 17.0691 3.75006 16.7691 4.04006C16.4791 4.34007 16.4791 4.81013 16.7691 5.11013L17.299 5.63992L16.033 6.90603C15.108 6.17603 13.984 5.68914 12.749 5.54714V3.751H13.499C13.909 3.751 14.249 3.411 14.249 3.001C14.249 2.591 13.909 2.251 13.499 2.251H10.499C10.089 2.251 9.74905 2.591 9.74905 3.001C9.74905 3.411 10.089 3.751 10.499 3.751H11.249V5.54714C10.014 5.68914 8.88999 6.17603 7.96499 6.90603L6.699 5.63992L7.22903 5.11013C7.51903 4.81013 7.51903 4.34007 7.22903 4.04006C6.92903 3.75006 6.45897 3.75006 6.16897 4.04006L4.03897 6.16995C3.74897 6.45995 3.74897 6.93001 4.03897 7.23001C4.18897 7.37001 4.37901 7.44998 4.57901 7.44998C4.76901 7.44998 4.95903 7.37001 5.10903 7.23001L5.63906 6.69998L6.90506 7.96609C6.17506 8.89109 5.68705 10.016 5.54605 11.25H3.75003V10.5C3.75003 10.09 3.41003 9.75003 3.00003 9.75003C2.59003 9.75003 2.25003 10.09 2.25003 10.5V13.5C2.25003 13.91 2.59003 14.25 3.00003 14.25C3.41003 14.25 3.75003 13.91 3.75003 13.5V12.75H5.54605C5.68805 13.985 6.17506 15.109 6.90506 16.034L5.63906 17.3001L5.10903 16.77C4.80903 16.48 4.33897 16.48 4.03897 16.77C3.74897 17.07 3.74897 17.5401 4.03897 17.8301L4.57302 18.364L2.46902 20.468C2.17602 20.76 2.17407 21.2351 2.46707 21.5291C2.61307 21.6761 2.80607 21.75 2.99807 21.75C3.18907 21.75 3.381 21.677 3.527 21.532L21.5291 3.52908C21.8241 3.23508 21.8221 2.76104 21.5291 2.46804Z" fill="currentColor"/>
</svg>

<svg xmlns="http://www.w3.org/2000/svg" width="24" height="24" fill="none"><path fill="currentColor" d="M21.75 10.5v3c0 .41-.34.75-.75.75s-.75-.34-.75-.75v-.75h-1.797a6.495 6.495 0 0 1-1.36 3.283L18.36 17.3l.53-.53c.3-.29.77-.29 1.07 0 .29.3.29.77 0 1.06l-2.13 2.13a.74.74 0 0 1-.53.21c-.19 0-.38-.07-.53-.21a.767.767 0 0 1 0-1.07l.53-.53-1.267-1.267a6.504 6.504 0 0 1-3.283 1.36v1.797h.75c.41 0 .75.34.75.75s-.34.75-.75.75h-3c-.41 0-.75-.34-.75-.75s.34-.75.75-.75h.75v-1.798a6.595 6.595 0 0 1-.897-.162.303.303 0 0 1-.142-.506l7.572-7.572a.302.302 0 0 1 .506.142c.075.291.127.592.162.897h1.798v-.75c0-.41.34-.75.75-.75s.751.339.751.749Zm-.22-8.032a.75.75 0 0 0-1.062.003l-2.104 2.104-.535-.535a.754.754 0 0 0-1.06 0c-.29.3-.29.77 0 1.07l.53.53-1.266 1.266a6.485 6.485 0 0 0-3.284-1.359V3.751h.75c.41 0 .75-.34.75-.75s-.34-.75-.75-.75h-3c-.41 0-.75.34-.75.75s.34.75.75.75h.75v1.796a6.485 6.485 0 0 0-3.284 1.359L6.699 5.64l.53-.53c.29-.3.29-.77 0-1.07a.755.755 0 0 0-1.06 0l-2.13 2.13c-.29.29-.29.76 0 1.06.15.14.34.22.54.22.19 0 .38-.08.53-.22l.53-.53 1.266 1.266a6.48 6.48 0 0 0-1.359 3.284H3.75v-.75c0-.41-.34-.75-.75-.75s-.75.34-.75.75v3c0 .41.34.75.75.75s.75-.34.75-.75v-.75h1.796a6.485 6.485 0 0 0 1.36 3.284L5.638 17.3l-.53-.53a.767.767 0 0 0-1.07 0c-.29.3-.29.77 0 1.06l.534.534-2.104 2.104a.75.75 0 0 0 1.058 1.064L21.529 3.529a.748.748 0 0 0 0-1.061Z"/></svg>
